X: 2165
T: Auld Lang Syne
R: reel
M: 4/4
K: Gminor
D2|G3 G G2 B2|A3 ^G A2 (B A)|G3 G B2 d2|e6 g2|
d3 B B2 G2|A3 ^G A2 (B A)|G3 E E2 D2|G6 e2|
d3 B B2 G2|A3 ^G A2 e2|d3 B B2 d2|e6 g2|
d3 B B2 G2|A3 ^G A2 (B A)|G3 E E2 D2|G6||

